src/dark/hiso font dark_k.svg

<svg xmlns="http://www.w3.org/2000/svg" width="90" height="126" viewBox="0 0 90 126"><path fill="#000101" d="M54 72l-18 9v-18l18 9 18-45-36-18-12 30-24-12v72l36 18v-32.65l3.35-1.67 32.65 16.32-18-27zm-16.43-58.86l30.62 15.31-15.76 39.41h-.01l-16.42-8.21v-14.65l-9.31-4.65 10.88-27.21zm-4.57 99.01l-30-15v-65.3l30 15v65.3z"/></svg>

<svg xmlns="http://www.w3.org/2000/svg" width="90" height="126"><path fill="#000101" d="M54 72l-18 9V63l18 9 18-45L36 9 24 39 0 27v72l36 18V84.35l3.35-1.67L72 99 54 72zM37.57 13.14l30.62 15.31-15.76 39.41h-.01L36 59.65V45l-9.31-4.65 10.88-27.21zM33 112.15l-30-15v-65.3l30 15v65.3z"/></svg>
